dist/img/arrow_1.svg

<svg width="432" height="202" viewBox="0 0 432 202" fill="none" xmlns="http://www.w3.org/2000/svg">
<path d="M376.056 194.213C378.008 196.166 381.174 196.166 383.127 194.213L414.947 162.394C416.899 160.441 416.899 157.275 414.947 155.322C412.994 153.37 409.828 153.37 407.876 155.323L379.591 183.607L351.307 155.323C349.354 153.37 346.189 153.37 344.236 155.323C342.283 157.275 342.283 160.441 344.236 162.394L376.056 194.213ZM11.2719 118.935C22.4294 89.2212 50.1331 67.8541 86.5283 55.4165C122.866 42.9986 167.199 39.751 210.205 45.8156C253.224 51.882 294.484 67.2028 324.868 91.4818C355.141 115.671 374.591 148.689 374.591 190.678L384.591 190.678C384.591 145.166 363.354 109.433 331.111 83.6695C298.98 57.9952 255.895 42.1597 211.602 35.9136C167.296 29.6658 121.348 32.9496 83.2945 45.9538C45.299 58.9383 14.5027 81.884 1.91008 115.42L11.2719 118.935Z" fill="#306990"/>
</svg>

<svg width="432" height="202" fill="none" xmlns="http://www.w3.org/2000/svg"><path d="M376.056 194.213a5 5 0 007.071 0l31.82-31.819a5 5 0 10-7.071-7.071l-28.285 28.284-28.284-28.284a5 5 0 00-7.071 0 5 5 0 000 7.071l31.82 31.819zM11.272 118.935c11.157-29.714 38.861-51.08 75.256-63.519C122.866 43 167.2 39.752 210.205 45.816c43.019 6.066 84.279 21.387 114.663 45.666 30.273 24.189 49.723 57.207 49.723 99.196h10c0-45.512-21.237-81.245-53.48-107.008-32.131-25.675-75.216-41.51-119.509-47.756-44.306-6.248-90.254-2.964-128.308 10.04C45.3 58.938 14.504 81.884 1.91 115.42l9.362 3.515z" fill="#306990"/></svg>
